;generated by ffslicer 1.30.3 08/23/22 14:32:07
;right_extruder_material: PLA
;layer_height: 0.2
;perimeter_shells: 2
;top_solid_layers: 4
;bottom_solid_layers: 3
;fill_density: 15%
;fill_pattern: hexagon
;base_print_speed: 50
;travel_speed: 80
;right_extruder_temperature: 200
;left_extruder_temperature: 0
;platform_temperature: 60
;right_extruder_temperature_raft0: 0
;left_extruder_temperature_raft0: 0
;right_extruder_temperature_reset: 
;left_extruder_temperature_reset: 
;start gcode
M140 S60 T0
M104 S200 T0
M104 S0 T1
G90
G28
G1 Z50.000 F420
G161 X Y F3300
M190 S60 T0
M109 S200 T0
M109 S0 T1
G92 E.0000
;layer_count: 98
M108 T0
G1 X138.50 Y118.26 F4800
;preExtrude:0.20
;preExtruder0
M106 S255
G1 Z.200 F420
G1 X138.50 Y118.26 F4800
G1 X80.85 Y118.22 E7.3630 F1200
G1 X79.53 Y118.13 E7.5320
G1 X77.95 Y117.77 E7.7389
G1 X76.44 Y117.19 E7.9455
G1 X75.03 Y116.39 E8.1526
G1 X73.75 Y115.39 E8.3600
G1 X72.63 Y114.21 E8.5678
G1 X71.64 Y112.81 E8.7868
G1 X70.81 Y111.06 E9.0342
G1 X70.32 Y109.29 E9.2688
G1 X70.15 Y107.64 E9.4806
G1 X70.15 Y61.87 E15.3263
;raft
;layer:0.30
;shell
G1 E10.3263 F2700
G1 Z.300 F420
G1 X78.75 Y62.18 F4200
G1 E15.3263 F2700
G1 X78.75 Y62.18 F4200
G1 X78.78 Y61.83 E15.3431 F600
G1 X78.85 Y61.48 E15.3602
G1 X78.98 Y61.14 E15.3777
G1 X79.15 Y60.84 E15.3942
G1 X79.37 Y60.56 E15.4112
G1 X79.72 Y60.25 E15.4336
G1 X80.02 Y60.06 E15.4506
G1 X80.34 Y59.92 E15.4674
G1 X80.68 Y59.82 E15.4843
G1 X81.16 Y59.77 E15.5075
G1 X113.15 Y59.77 E17.0396
G1 X113.51 Y59.80 E17.0569
G1 X113.85 Y59.88 E17.0736
G1 X114.19 Y60.01 E17.0911
G1 X114.49 Y60.18 E17.1076
G1 X114.77 Y60.40 E17.1246
G1 X115.01 Y60.65 E17.1412
G1 X115.21 Y60.93 E17.1577
G1 X115.42 Y61.36 E17.1806
G1 X115.51 Y61.70 E17.1975
G1 X115.56 Y62.20 E17.2215
G1 X115.56 Y80.15 E18.0813
G1 X115.53 Y80.53 E18.0995
G1 X115.46 Y80.87 E18.1161
G1 X115.33 Y81.20 E18.1331
G1 X115.16 Y81.50 E18.1496
G1 X114.94 Y81.78 E18.1667
G1 X114.59 Y82.09 E18.1891
G1 X114.29 Y82.29 E18.2064
G1 X113.97 Y82.43 E18.2231
G1 X113.62 Y82.53 E18.2405
G1 X113.28 Y82.57 E18.2569
G1 X81.17 Y82.57 E19.7948
G1 X80.80 Y82.55 E19.8126
G1 X80.46 Y82.47 E19.8293
G1 X80.12 Y82.34 E19.8467
G1 X79.82 Y82.17 E19.8632
G1 X79.54 Y81.95 E19.8803
G1 X79.29 Y81.69 E19.8976
G1 X79.10 Y81.41 E19.9138
G1 X78.89 Y80.98 E19.9367
G1 X78.80 Y80.64 E19.9535
G1 X78.75 Y80.16 E19.9766
G1 X78.75 Y76.51 E20.1515
G1 X88.31 Y76.51 E20.6093
G1 X88.31 Y76.73 E20.6199
G1 X98.51 Y76.73 E21.1084
G1 X98.51 Y65.53 E21.6448
G1 X88.31 Y65.53 E22.1333
G1 X88.31 Y65.81 E22.1468
G1 X78.75 Y65.81 E22.6046
G1 X78.75 Y62.18 E22.7785
G1 X78.35 Y62.17 F4200
G1 X78.38 Y61.76 E22.7982 F600
G1 X78.47 Y61.36 E22.8178
G1 X78.62 Y60.97 E22.8378
G1 X78.82 Y60.62 E22.8571
G1 X79.07 Y60.29 E22.8770
G1 X79.48 Y59.93 E22.9031
G1 X79.83 Y59.70 E22.9232
G1 X80.21 Y59.54 E22.9429
G1 X80.60 Y59.43 E22.9623
G1 X81.15 Y59.37 E22.9888
G1 X113.16 Y59.37 E24.5219
G1 X113.57 Y59.40 E24.5416
G1 X113.97 Y59.49 E24.5612
G1 X114.36 Y59.64 E24.5813
G1 X114.71 Y59.85 E24.6008
G1 X115.04 Y60.10 E24.6206
G1 X115.33 Y60.40 E24.6406
G1 X115.56 Y60.73 E24.6599
G1 X115.79 Y61.22 E24.6858
G1 X115.91 Y61.63 E24.7063
G1 X115.96 Y62.17 E24.7322
G1 X115.96 Y80.17 E25.5943
G1 X115.93 Y80.58 E25.6140
G1 X115.84 Y80.98 E25.6337
G1 X115.69 Y81.37 E25.6537
G1 X115.49 Y81.73 E25.6734
G1 X115.24 Y82.05 E25.6929
G1 X114.83 Y82.42 E25.7193
G1 X114.48 Y82.64 E25.7391
G1 X114.10 Y82.81 E25.7590
G1 X113.70 Y82.92 E25.7789
G1 X113.30 Y82.97 E25.7982
G1 X81.15 Y82.97 E27.3380
G1 X80.74 Y82.94 E27.3577
G1 X80.34 Y82.85 E27.3774
G1 X79.95 Y82.70 E27.3974
G1 X79.60 Y82.50 E27.4167
G1 X79.27 Y82.25 E27.4365
G1 X78.99 Y81.95 E27.4562
G1 X78.75 Y81.61 E27.4761
G1 X78.52 Y81.13 E27.5016
G1 X78.40 Y80.72 E27.5220
G1 X78.35 Y80.17 E27.5485
G1 X78.35 Y76.11 E27.7429
G1 X87.86 Y76.11 E28.1984
G1 X87.86 Y66.21 E28.6726
G1 X78.35 Y66.21 E29.1281
G1 X78.35 Y62.17 E29.3216
G1 E24.3216 F2700
G1 X88.71 Y65.93 F4200
G1 E29.3216 F2700
G1 X88.71 Y65.93 F4200
G1 X88.71 Y76.33 E29.8197 F600
G1 X98.11 Y76.33 E30.2699
G1 X98.11 Y65.93 E30.7680
G1 X88.71 Y65.93 E31.2182
;infill
G1 X88.28 Y66.05 F4200
G1 X88.28 Y76.27 E31.7077 F600
G1 E26.7077 F2700
G1 X79.64 Y81.56 F4200
G1 E31.7077 F2700
G1 X79.64 Y81.56 F4200
G1 X80.00 Y81.88 E31.7307 F600
G1 X80.26 Y82.03 E31.7451
G1 X80.56 Y82.14 E31.7604
G1 X80.85 Y82.21 E31.7747
G1 X79.12 Y80.48 E31.8919
G1 X79.09 Y79.87 E31.9211
G1 X81.45 Y82.23 E32.0810
G1 X82.02 Y82.23 E32.1083
G1 X79.09 Y79.30 E32.3067
G1 X79.09 Y78.73 E32.3340
G1 X82.58 Y82.23 E32.5708
G1 X83.15 Y82.23 E32.5981
G1 X79.09 Y78.17 E32.8731
G1 X79.09 Y77.60 E32.9004
G1 X83.72 Y82.23 E33.2140
G1 X84.29 Y82.23 E33.2413
G1 X79.09 Y77.03 E33.5935
G1 X79.09 Y76.85 E33.6021
G1 X79.48 Y76.85 E33.6208
G1 X84.86 Y82.23 E33.9852
G1 X85.43 Y82.23 E34.0125
G1 X80.05 Y76.85 E34.3769
G1 X80.62 Y76.85 E34.4042
G1 X85.99 Y82.23 E34.7683
G1 X86.56 Y82.23 E34.7956
G1 X81.19 Y76.85 E35.1596
G1 X81.75 Y76.85 E35.1865
G1 X87.13 Y82.23 E35.5509
G1 X87.70 Y82.23 E35.5782
G1 X82.32 Y76.85 E35.9426
G1 X82.89 Y76.85 E35.9699
G1 X88.27 Y82.23 E36.3343
G1 X88.84 Y82.23 E36.3616
G1 X83.46 Y76.85 E36.7260
G1 X84.03 Y76.85 E36.7533
G1 X89.41 Y82.23 E37.1177
G1 X89.97 Y82.23 E37.1445
G1 X84.60 Y76.85 E37.5086
G1 X85.17 Y76.85 E37.5359
G1 X90.54 Y82.23 E37.8999
G1 X91.11 Y82.23 E37.9272
G1 X85.73 Y76.85 E38.2917
G1 X86.30 Y76.85 E38.3190
G1 X91.68 Y82.23 E38.6834
G1 X92.25 Y82.23 E38.7107
G1 X86.87 Y76.85 E39.0751
G1 X87.44 Y76.85 E39.1024
G1 X92.82 Y82.23 E39.4668
G1 X93.38 Y82.23 E39.4936
G1 X88.23 Y77.07 E39.8428
G1 X88.80 Y77.07 E39.8701
G1 X93.95 Y82.23 E40.2192
G1 X94.52 Y82.23 E40.2465
G1 X89.37 Y77.07 E40.5957
G1 X89.93 Y77.07 E40.6225
G1 X95.09 Y82.23 E40.9720
G1 X95.66 Y82.23 E40.9993
G1 X90.50 Y77.07 E41.3488
G1 X91.07 Y77.07 E41.3761
G1 X96.23 Y82.23 E41.7256
G1 X96.80 Y82.23 E41.7529
G1 X91.64 Y77.07 E42.1024
G1 X92.21 Y77.07 E42.1297
G1 X97.36 Y82.23 E42.4789
G1 X97.93 Y82.23 E42.5062
G1 X92.78 Y77.07 E42.8554
G1 X93.35 Y77.07 E42.8827
G1 X98.50 Y82.23 E43.2318
G1 X99.07 Y82.23 E43.2591
G1 X93.91 Y77.07 E43.6086
G1 X94.48 Y77.07 E43.6359
G1 X99.64 Y82.23 E43.9854
G1 X100.21 Y82.23 E44.0127
G1 X95.05 Y77.07 E44.3622
G1 X95.62 Y77.07 E44.3895
G1 X100.78 Y82.23 E44.7390
G1 X101.34 Y82.23 E44.7659
G1 X96.19 Y77.07 E45.1150
G1 X96.76 Y77.07 E45.1423
G1 X101.91 Y82.23 E45.4915
G1 X102.48 Y82.23 E45.5188
G1 X97.32 Y77.07 E45.8683
G1 X97.89 Y77.07 E45.8956
G1 X103.05 Y82.23 E46.2451
G1 X103.62 Y82.23 E46.2724
G1 X98.46 Y77.07 E46.6219
G1 X98.85 Y77.07 E46.6406
G1 X98.85 Y76.89 E46.6492
G1 X104.19 Y82.23 E47.0109
G1 X104.75 Y82.23 E47.0377
G1 X98.85 Y76.32 E47.4377
G1 X98.85 Y75.75 E47.4650
G1 X105.32 Y82.23 E47.9036
G1 X105.89 Y82.23 E47.9309
G1 X98.85 Y75.18 E48.4080
G1 X98.85 Y74.61 E48.4353
G1 X106.46 Y82.23 E48.9511
G1 X107.03 Y82.23 E48.9784
G1 X98.85 Y74.05 E49.5325
G1 X98.85 Y73.48 E49.5598
G1 X107.60 Y82.23 E50.1525
G1 X108.17 Y82.23 E50.1798
G1 X98.85 Y72.91 E50.8110
G1 X98.85 Y72.34 E50.8383
G1 X108.73 Y82.23 E51.5079
G1 X109.30 Y82.23 E51.5352
G1 X98.85 Y71.77 E52.2433
G1 X98.85 Y71.20 E52.2706
G1 X109.87 Y82.23 E53.0174
G1 X110.44 Y82.23 E53.0447
G1 X98.85 Y70.63 E53.8301
G1 X98.85 Y70.07 E53.8569
G1 X111.01 Y82.23 E54.6805
G1 X111.58 Y82.23 E54.7078
G1 X98.85 Y69.50 E55.5700
G1 X98.85 Y68.93 E55.5974
G1 X112.15 Y82.23 E56.4982
G1 X112.71 Y82.23 E56.5250
G1 X98.85 Y68.36 E57.4641
G1 X98.85 Y67.79 E57.4914
G1 X113.28 Y82.22 E58.4688
G1 X113.75 Y82.13 E58.4918
G1 X98.85 Y67.22 E59.5013
G1 X98.85 Y66.65 E59.5286
G1 X114.16 Y81.96 E60.5656
G1 X114.48 Y81.73 E60.5845
G1 X98.85 Y66.09 E61.6435
G1 X98.85 Y65.52 E61.6708
G1 X114.77 Y81.44 E62.7491
G1 X114.99 Y81.09 E62.7689
G1 X94.01 Y60.11 E64.1900
G1 X94.58 Y60.11 E64.2173
G1 X115.15 Y80.68 E65.6105
G1 X115.19 Y80.48 E65.6203
G1 X115.21 Y80.18 E65.6347
G1 X95.14 Y60.11 E66.9941
G1 X95.71 Y60.11 E67.0214
G1 X115.22 Y79.62 E68.3429
G1 X115.22 Y79.05 E68.3702
G1 X96.28 Y60.11 E69.6530
G1 X96.85 Y60.11 E69.6803
G1 X115.22 Y78.48 E70.9246
G1 X115.22 Y77.91 E70.9519
G1 X97.42 Y60.11 E72.1575
G1 X97.99 Y60.11 E72.1848
G1 X115.22 Y77.34 E73.3519
G1 X115.22 Y76.77 E73.3792
G1 X98.56 Y60.11 E74.5076
G1 X99.12 Y60.11 E74.5344
G1 X115.22 Y76.21 E75.6249
G1 X115.22 Y75.64 E75.6522
G1 X99.69 Y60.11 E76.7041
G1 X100.26 Y60.11 E76.7314
G1 X115.22 Y75.07 E77.7447
G1 X115.22 Y74.50 E77.7720
G1 X100.83 Y60.11 E78.7467
G1 X101.40 Y60.11 E78.7740
G1 X115.22 Y73.93 E79.7101
G1 X115.22 Y73.36 E79.7374
G1 X101.97 Y60.11 E80.6348
G1 X102.54 Y60.11 E80.6621
G1 X115.22 Y72.79 E81.5210
G1 X115.22 Y72.23 E81.5478
G1 X103.10 Y60.11 E82.3687
G1 X103.67 Y60.11 E82.3960
G1 X115.22 Y71.66 E83.1783
G1 X115.22 Y71.09 E83.2056
G1 X104.24 Y60.11 E83.9493
G1 X104.81 Y60.11 E83.9766
G1 X115.22 Y70.52 E84.6817
G1 X115.22 Y69.95 E84.7090
G1 X105.38 Y60.11 E85.3755
G1 X105.95 Y60.11 E85.4028
G1 X115.22 Y69.38 E86.0307
G1 X115.22 Y68.81 E86.0580
G1 X106.52 Y60.11 E86.6473
G1 X107.08 Y60.11 E86.6741
G1 X115.22 Y68.25 E87.2255
G1 X115.22 Y67.68 E87.2528
G1 X107.65 Y60.11 E87.7655
G1 X108.22 Y60.11 E87.7928
G1 X115.22 Y67.11 E88.2669
G1 X115.22 Y66.54 E88.2942
G1 X108.79 Y60.11 E88.7298
G1 X109.36 Y60.11 E88.7571
G1 X115.22 Y65.97 E89.1540
G1 X115.22 Y65.40 E89.1813
G1 X109.93 Y60.11 E89.5396
G1 X110.49 Y60.11 E89.5664
G1 X115.22 Y64.84 E89.8868
G1 X115.22 Y64.27 E89.9141
G1 X111.06 Y60.11 E90.1958
G1 X111.63 Y60.11 E90.2231
G1 X115.22 Y63.70 E90.4663
G1 X115.22 Y63.13 E90.4936
G1 X112.20 Y60.11 E90.6981
G1 X112.77 Y60.11 E90.7254
G1 X115.22 Y62.56 E90.8914
G1 X115.19 Y61.97 E90.9197
G1 X113.35 Y60.13 E91.0443
G1 X113.75 Y60.20 E91.0638
G1 X114.20 Y60.40 E91.0873
G1 X114.93 Y61.14 E91.1371
G1 E86.1371 F2700
G1 X98.52 Y65.19 F4200
G1 E91.1371 F2700
G1 X98.52 Y65.19 F4200
G1 X93.44 Y60.11 E91.4812 F600
G1 X92.87 Y60.11 E91.5085
G1 X97.95 Y65.19 E91.8526
G1 X97.38 Y65.19 E91.8799
G1 X92.30 Y60.11 E92.2240
G1 X91.73 Y60.11 E92.2513
G1 X96.81 Y65.19 E92.5954
G1 X96.25 Y65.19 E92.6222
G1 X91.17 Y60.11 E92.9663
G1 X90.60 Y60.11 E92.9936
G1 X95.68 Y65.19 E93.3376
G1 X95.11 Y65.19 E93.3649
G1 X90.03 Y60.11 E93.7090
G1 X89.46 Y60.11 E93.7363
G1 X94.54 Y65.19 E94.0804
G1 X93.97 Y65.19 E94.1077
G1 X88.89 Y60.11 E94.4518
G1 X88.32 Y60.11 E94.4791
G1 X93.40 Y65.19 E94.8232
G1 X92.84 Y65.19 E94.8500
G1 X87.75 Y60.11 E95.1944
G1 X87.19 Y60.11 E95.2212
G1 X92.27 Y65.19 E95.5653
G1 X91.70 Y65.19 E95.5926
G1 X86.62 Y60.11 E95.9367
G1 X86.05 Y60.11 E95.9640
G1 X91.13 Y65.19 E96.3081
G1 X90.56 Y65.19 E96.3354
G1 X85.48 Y60.11 E96.6795
G1 X84.91 Y60.11 E96.7068
G1 X89.99 Y65.19 E97.0509
G1 X89.42 Y65.19 E97.0782
G1 X84.34 Y60.11 E97.4222
G1 X83.77 Y60.11 E97.4495
G1 X88.86 Y65.19 E97.7940
G1 X88.29 Y65.19 E97.8213
G1 X83.21 Y60.11 E98.1653
G1 X82.64 Y60.11 E98.1926
G1 X87.96 Y65.44 E98.5533
G1 X87.97 Y65.47 E98.5548
G1 X87.43 Y65.47 E98.5807
G1 X82.07 Y60.11 E98.9437
G1 X81.50 Y60.11 E98.9710
G1 X86.86 Y65.47 E99.3341
G1 X86.29 Y65.47 E99.3614
G1 X80.95 Y60.13 E99.7231
G1 X80.48 Y60.23 E99.7461
G1 X85.72 Y65.47 E100.1010
G1 X85.16 Y65.47 E100.1278
G1 X80.09 Y60.41 E100.4709
G1 X79.77 Y60.66 E100.4904
G1 X84.59 Y65.47 E100.8165
G1 X84.02 Y65.47 E100.8438
G1 X79.50 Y60.95 E101.1499
G1 X79.28 Y61.31 E101.1701
G1 X83.45 Y65.47 E101.4523
G1 X82.88 Y65.47 E101.4795
G1 X79.15 Y61.74 E101.7322
G1 X79.09 Y62.25 E101.7568
G1 X82.31 Y65.47 E101.9749
G1 X81.75 Y65.47 E102.0017
G1 X79.09 Y62.82 E102.1815
G1 X79.09 Y63.38 E102.2084
G1 X81.18 Y65.47 E102.3499
G1 X80.61 Y65.47 E102.3772
G1 X79.09 Y63.95 E102.4802
G1 X79.09 Y64.52 E102.5075
G1 X80.04 Y65.47 E102.5718
G1 X79.47 Y65.47 E102.5991
G1 X79.09 Y65.09 E102.6249
;shell
G1 E97.6249 F2700
G1 X78.75 Y89.23 F4200
G1 E102.6249 F2700
G1 X78.75 Y89.23 F4200
G1 X78.78 Y88.88 E102.6417 F600
G1 X78.85 Y88.53 E102.6588
G1 X78.98 Y88.19 E102.6762
G1 X79.15 Y87.89 E102.6927
G1 X79.37 Y87.61 E102.7098
G1 X79.72 Y87.30 E102.7322
G1 X80.01 Y87.11 E102.7488
G1 X80.45 Y86.93 E102.7715
G1 X80.81 Y86.85 E102.7892
G1 X81.16 Y86.82 E102.8060
G1 X113.15 Y86.82 E104.3382
G1 X113.51 Y86.85 E104.3555
G1 X113.85 Y86.93 E104.3722
G1 X114.29 Y87.11 E104.3950
G1 X114.59 Y87.30 E104.4120
G1 X114.85 Y87.53 E104.4286
G1 X115.15 Y87.88 E104.4507
G1 X115.32 Y88.19 E104.4676
G1 X115.49 Y88.64 E104.4907
G1 X115.56 Y89.22 E104.5186
G1 X115.56 Y107.20 E105.3798
G1 X115.53 Y107.58 E105.3980
G1 X115.46 Y107.92 E105.4147
G1 X115.33 Y108.25 E105.4317
G1 X115.16 Y108.55 E105.4482
G1 X114.94 Y108.83 E105.4652
G1 X114.59 Y109.14 E105.4876
G1 X114.29 Y109.34 E105.5049
G1 X113.97 Y109.48 E105.5216
G1 X113.62 Y109.58 E105.5390
G1 X113.28 Y109.62 E105.5554
G1 X81.17 Y109.62 E107.0933
G1 X80.80 Y109.60 E107.1111
G1 X80.46 Y109.52 E107.1278
G1 X80.12 Y109.39 E107.1453
G1 X79.82 Y109.22 E107.1618
G1 X79.54 Y109.00 E107.1788
G1 X79.29 Y108.74 E107.1961
G1 X79.10 Y108.46 E107.2123
G1 X78.89 Y108.03 E107.2352
G1 X78.80 Y107.69 E107.2521
G1 X78.75 Y107.21 E107.2752
G1 X78.75 Y103.56 E107.4500
G1 X88.31 Y103.56 E107.9079
G1 X88.31 Y103.78 E107.9184
G1 X98.51 Y103.78 E108.4069
G1 X98.51 Y92.58 E108.9434
G1 X88.31 Y92.58 E109.4319
G1 X88.31 Y92.86 E109.4453
G1 X78.75 Y92.86 E109.9032
G1 X78.75 Y89.23 E110.0770
G1 X78.35 Y89.22 F4200
G1 X78.38 Y88.81 E110.0967 F600
G1 X78.47 Y88.41 E110.1164
G1 X78.62 Y88.02 E110.1364
G1 X78.82 Y87.67 E110.1557
G1 X79.07 Y87.34 E110.1755
G1 X79.48 Y86.98 E110.2016
G1 X79.83 Y86.76 E110.2214
G1 X80.33 Y86.55 E110.2474
G1 X80.74 Y86.45 E110.2676
G1 X81.15 Y86.42 E110.2873
G1 X113.16 Y86.42 E111.8204
G1 X113.57 Y86.45 E111.8401
G1 X113.97 Y86.54 E111.8597
G1 X114.47 Y86.75 E111.8857
G1 X114.83 Y86.98 E111.9062
G1 X115.14 Y87.24 E111.9256
G1 X115.48 Y87.66 E111.9514
G1 X115.69 Y88.03 E111.9718
G1 X115.87 Y88.53 E111.9973
G1 X115.95 Y88.95 E112.0178
G1 X115.96 Y89.22 E112.0307
G1 X115.96 Y107.22 E112.8928
G1 X115.93 Y107.63 E112.9125
G1 X115.84 Y108.03 E112.9321
G1 X115.69 Y108.42 E112.9521
G1 X115.49 Y108.78 E112.9719
G1 X115.24 Y109.10 E112.9913
G1 X114.83 Y109.47 E113.0178
G1 X114.48 Y109.69 E113.0376
G1 X114.10 Y109.86 E113.0575
G1 X113.70 Y109.97 E113.0774
G1 X113.30 Y110.02 E113.0967
G1 X81.15 Y110.02 E114.6365
G1 X80.74 Y109.99 E114.6562
G1 X80.34 Y109.90 E114.6758
G1 X79.95 Y109.75 E114.6958
G1 X79.60 Y109.55 E114.7151
G1 X79.27 Y109.30 E114.7350
G1 X78.99 Y109.00 E114.7546
G1 X78.75 Y108.66 E114.7745
G1 X78.52 Y108.18 E114.8000
G1 X78.40 Y107.77 E114.8205
G1 X78.35 Y107.22 E114.8469
G1 X78.35 Y103.16 E115.0414
G1 X87.86 Y103.16 E115.4969
G1 X87.86 Y93.26 E115.9710
G1 X78.35 Y93.26 E116.4265
G1 X78.35 Y89.22 E116.6200
G1 E111.6200 F2700
G1 X88.71 Y92.98 F4200
G1 E116.6200 F2700
G1 X88.71 Y92.98 F4200
G1 X88.71 Y103.38 E117.1181 F600
G1 X98.11 Y103.38 E117.5683
G1 X98.11 Y92.98 E118.0664
G1 X88.71 Y92.98 E118.5166
;infill
G1 X88.28 Y93.10 F4200
G1 X88.28 Y103.32 E119.0061 F600
G1 E114.0061 F2700
G1 X79.64 Y108.61 F4200
G1 E119.0061 F2700
G1 X79.64 Y108.61 F4200
G1 X80.00 Y108.93 E119.0292 F600
G1 X80.26 Y109.08 E119.0436
G1 X80.56 Y109.19 E119.0589
G1 X80.85 Y109.26 E119.0731
G1 X79.12 Y107.53 E119.1903
G1 X79.09 Y106.92 E119.2196
G1 X81.45 Y109.28 E119.3794
G1 X82.02 Y109.28 E119.4067
G1 X79.09 Y106.35 E119.6052
G1 X79.09 Y105.78 E119.6325
G1 X82.58 Y109.28 E119.8692
G1 X83.15 Y109.28 E119.8965
G1 X79.09 Y105.22 E120.1715
G1 X79.09 Y104.65 E120.1988
G1 X83.72 Y109.28 E120.5124
G1 X84.29 Y109.28 E120.5397
G1 X79.09 Y104.08 E120.8919
G1 X79.09 Y103.90 E120.9005
G1 X79.48 Y103.90 E120.9192
G1 X84.86 Y109.28 E121.2836
G1 X85.43 Y109.28 E121.3109
G1 X80.05 Y103.90 E121.6753
G1 X80.62 Y103.90 E121.7026
G1 X86.00 Y109.28 E122.0670
G1 X86.56 Y109.28 E122.0938
G1 X81.19 Y103.90 E122.4579
G1 X81.75 Y103.90 E122.4847
G1 X87.13 Y109.28 E122.8491
G1 X87.70 Y109.28 E122.8764
G1 X82.32 Y103.90 E123.2408
G1 X82.89 Y103.90 E123.2681
G1 X88.27 Y109.28 E123.6325
G1 X88.84 Y109.28 E123.6598
G1 X83.46 Y103.90 E124.0242
G1 X84.03 Y103.90 E124.0515
G1 X89.41 Y109.28 E124.4159
G1 X89.98 Y109.28 E124.4432
G1 X84.60 Y103.90 E124.8076
G1 X85.17 Y103.90 E124.8349
G1 X90.54 Y109.28 E125.1990
G1 X91.11 Y109.28 E125.2263
G1 X85.73 Y103.90 E125.5907
G1 X86.30 Y103.90 E125.6180
G1 X91.68 Y109.28 E125.9824
